!!!!SEGMENT: pl-wumfc--n57158--002_krolikiewicz-napoleon--mazur.krn
!!!cenid: 18xx:4119
!!!COM: Królikiewicz, Napoleon
!!!COM-rismID: pe50050290
!!!CDT:
!!!CNT:
!!!OTL: Mazur
!!!PDT:
!!!AGN:
!!!SMS-siglum: PL-Wumfc
!!!SMS-shelfmark: N57158
!!!SMS-shelfwork: 002 W
!!!SMS-variant:
!!!SMS-altvar:
!!!NIFC-rismSourceID: 1001178021
!!!NIFC-rismChildID: 1001178021
!!!NIFC-islandoraID: pl-wumfc:8167
!!!URL-pdf-islandora: https://repozytorium.nifc.pl/islandora/object/pl-wumfc%3A8167/datastream/PDF/view
!!!URL-scan: https://polish.musicsources.pl/pl/lokalizacje/galeria/druki-muzyczne/12605/1 @EN{Scan on Polish Music Sources Website} @PL{Skany w portalu Dziedzictwo Muzyki Polskiej w otwartym dostępie}
!!!ONB-nifc: UWAGA: w zbiorze 1. Polonez, 2. Mazur, 3. Walc
!!!AIN: 1 piano
!!!key: D
**kern	**kern	**dynam
*part1	*part1	*part1
*staff2	*staff1	*
*I"[Pianoforte]	*I"[Pianoforte]	*
*>[A,A,B,B,C]	*>[A,A,B,B,C]	*
*>A	*>A	*
*Ipiano	*Ipiano	*
*ICklav	*ICklav	*
*clefF4	*clefG2	*
*k[f#c#]	*k[f#c#]	*
*D:	*D:	*
*M3/8	*M3/8	*
!!LO:TX:i:a:t=Mazur
8r	8a/	f
=1	=1	=1
8D 8AA 8FF# 8DD/	8aL 8f# 8d/	.
8r	16aL 16f# 16d/	.
.	16aJ 16f# 16d/	.
8D 8DD/	8ff#J 8dd 8a/	.
=2	=2	=2
!	!LO:TX:t=P:problem:mixed beam	!
8A 8E 8C# 8AA\	8ee/L 8cc#/ 8a/	.
8r	16aaaL 16ccc# 16aa\	.
.	16aaaJ 16ccc# 16aa\	.
8A 8AA\	8aaaJ 8ccc# 8aa\	.
=3	=3	=3
8d 8A 8F# 8D\	8fff#L 8ddd 8aa\	.
8r	16ff#L 16dd 16a\	.
.	16ff#J 16dd 16a\	.
8d 8D\	8ff#J 8dd 8a\	.
=4	=4	=4
8AA 8EE 8CC# 8AAA/	8eeL 8cc# 8a\	.
8r	8fff#\	.
8AA 8AAA/	8eeJ 8cc# 8a\	.
=5	=5	=5
8D 8AA 8FF# 8DD/	8aL 8f# 8d/	.
8r	16aL 16f# 16d/	.
.	16aJ 16f# 16d/	.
8D 8DD/	8ff#J 8dd 8a/	.
=6	=6	=6
8A 8E 8C# 8AA\	8eeL 8cc# 8a\	.
8r	16eeL 16cc# 16a\	.
.	16eeJ 16cc# 16a\	.
8A 8AA\	8ccc#J 8aa 8ee\	.
=7	=7	=7
!!LO:TX:t=P:problem:niepewna interpretacja rytmiczna taktu
.	8qee/	.
!LO:N:vis=4	!	!
8E 8BB 8GG#X 8EE/	16eeeLL 16gg#X\	.
.	32eeeL 32gg#\	.
.	32eeeJ 32gg#\	.
!LO:N:vis=4	!LO:N:vis=16	!
8r	8ee\	.
!LO:N:vis=4	!	!
8E 8EE/	16ddd 16gg#X\	.
.	16ee\JJ	.
=8	=8	=8
!LO:TX:t=P:problem:mixed beam	!	!
.	8qgg#X/	.
8A\L	4aa\	.
8AA/J	.	.
!!LO:PB:g=original
=9:|!|:	=9:|!|:	=9:|!|:
!LO:N:vis=4	!	!
8r	8ff#\	.
=10	=10	=10
!LO:TX:t=P:problem:mixed beam	!	!
8AA/L	(32aa\LLL	.
.	32gg\	.
.	32ee\	.
.	32cc#\JJJ)	.
8A 8E 8C#\	8.eee\L	.
8AJ 8E 8C#\	.	.
.	16ccc#\Jk	.
=11	=11	=11
8D\L	8ddd\L	.
.	32qqaa/LLL	.
.	32qqbb/	.
.	32qqaa/JJJ	.
8A 8F#\	16gg\L	.
.	16aa\	.
8AJ 8F#\	16bb\	.
.	16aa\JJ	.
=12	=12	=12
8AA\L	32aa\LLL	.
.	32gg\	.
.	32ee\	.
.	32cc#\JJJ	.
8A 8E 8C#\	16a\LL	.
.	16g\	.
8AJ 8E 8C#\	16e\	.
.	16c#\JJ	.
=13	=13	=13
8D\L	16ds$sS</LL	.
.	16f#/	.
8A 8F#\	16a/	.
.	16dd/	.
8AJ 8F#\	16ff#/	.
.	16aa/JJ	.
=14	=14	=14
8AA\L	(32aa\LLL	.
.	32gg\	.
.	32ee\	.
.	32cc#\JJJ)	.
8A 8E 8C#\	8.eee\L	.
8AJ 8E 8C#\	.	.
.	16aa\Jk	.
=15	=15	=15
8D\L	8ddd\L	.
.	32qqaa/LLL	.
.	32qqbb/	.
.	32qqaa/JJJ	.
8A 8F#\	16gg\L	.
.	16aa\	.
8AJ 8F#\	16bb\	.
.	16aa\JJ	.
=16	=16	=16
8AA\L	32aa\LLL	.
.	32gg\	.
.	32ee\	.
.	32cc#\JJJ	.
8A 8E 8C#\	16as$SS\LL	.
.	16a\	.
8AJ 8E 8C#\	16b\	.
.	16cc#\JJ	.
!!LO:LB:g=original
=17	=17	=17
!LO:TX:t=P:problem:mixed beam	!	!
8D\L	4dd\	.
8DD/J	.	.
*kcancel	*kcancel	*
!!LO:TX:t=P:problem:odwrotna kolejność krzyżyka i kasownika
=18:|!|:	=18:|!|:	=18:|!|:
*clefF4	*clefG2	*
*k[f#]	*k[f#]	*
!LO:TX:i:a:t=dolce	!	!
.	8qdd/	.
8GL 8GG\	(8ddd\L	.
8d 8B 8G\	32ccc\LL	.
.	32bb\	.
.	32aa\	.
.	32gg\	.
8eJ 8c 8G\	32ff#\	.
.	32gg\	.
.	64aa\L	.
.	64gg\J	.
.	32ee\JJJ)	.
=19	=19	=19
8GL 8GG\	16.dds$SSLL 16.b\	.
.	32eeJJk 32cc\	.
8d 8B 8G\	4dd 4b\	.
8dJ 8B 8G\	.	.
=20	=20	=20
8DL 8DD\	16cc\LL	.
.	16dd\	.
8d 8A 8F# 8D\	16ff#\	.
.	16aa\	.
8dJ 8A 8F# 8D\	16ddd\	.
.	16ff#\JJ	.
=21	=21	=21
8GL 8GG\	8gg\L	.
.	32qqdd/LLL	.
.	32qqee/	.
.	32qqdd/JJJ	.
8d 8B 8G\	16cc#X\L	.
.	16dd\	.
8dJ 8B 8G\	16ee\	.
.	16dd\JJ	.
=22	=22	=22
.	8qdd/	.
8GL 8GG\	8ddd\L	.
8d 8B 8G\	(32ccc\LL	.
.	32bb\	.
.	32aa\	.
.	32gg\	.
8eJ 8c 8G\	32ff#\	.
.	32gg\	.
.	64aa\L	.
.	64gg\J	.
.	32ee\JJJ)	.
=23	=23	=23
8GL 8GG\	16.dds$SSLL 16.b\	.
.	32eeJJk 32cc\	.
8d 8B 8G\	4dd 4b\	.
8dJ 8B 8G\	.	.
=24	=24	=24
8DL 8DD\	16cc\LL	.
.	16dd\	.
8d 8A 8F# 8D\	16ff#\	.
.	16aa\	.
8dJ 8A 8F# 8D\	16ddd\	.
.	16ff#\JJ	.
=25	=25	=25
!LO:TX:t=P:problem:mixed beam	!	!
8G\L	4gg\	.
8GG/J	.	.
8ryy	8r	.
==	==	==
*-	*-	*-
!!!system-decoration: {(p1)}
!!!ENC: Andrzej Gręziak
!!!END: 2022-08-24
!!!ENC: Kamil Watkowski
!!!END: 2022-09-30
!!!RDF**kern: > = above
!!!RDF**kern: < = below!!!YEC: Copyright 2022 Narodowy Instytut Fryderyka Chopina (https://polishscores.org)
!!!YEM: License CC-BY-4.0 (https://creativecommons.org/licenses/by/4.0)
